resources/svg/sign.svg

<svg xmlns="http://www.w3.org/2000/svg" viewBox="0 0 24 24" fill="currentColor"><path fill="none" stroke="currentColor" stroke-width="2" d="M8,23 C10,23 12.9996892,23 15,23 C18,23 19,21 19,18 L19,6 C19,4.00000008 18,3.99999992 17.5,4 C17,4.00000008 15.9998779,4.00000008 15.9998779,5.99999984 L15.9998779,13 C15.9998777,12 16.0001888,10.9999999 14.5003109,10.9999999 C13.000433,10.9999999 13,13 13,13 C13,12 13,11 11.5,10.9999999 C10,10.9999999 10,12 10,12.9999999 L10,4 C10,3 10.029402,2 8.5,2 C7,2 7,3 7,4 L7,18 L7,14 C7,13 6.44999986,12 5.00000005,12 C5,12 4,12 4,12 C4,12 4.00000001,14.0384045 4,18 C3.99999999,21.9615955 6,23.023861 8,23 Z"/></svg>

<svg viewBox="0 0 24 24"><path fill="none" stroke="currentColor" stroke-width="2" d="M8 23h7c3 0 4-2 4-5V6c0-2-1-2-1.5-2S16 4 16 6v7c0-1 0-2-1.5-2S13 13 13 13c0-1 0-2-1.5-2S10 12 10 13V4c0-1 .03-2-1.5-2C7 2 7 3 7 4v14v-4c0-1-.55-2-2-2H4v6c0 3.962 2 5.024 4 5z"/></svg>
